X: 7190
T:the Hag at the Churn
R:Jig
O:Ireland
M:6/8
K:ADor
A2G ADD|A2G Adc|A2G ADD|DEG DEG:|\
AdB c3|Add efg|
AdB c3|EDE GED|\
AdB c3|Add efg|fge dBA|GEF GED|]
